storage/app/icons/tabler/filled/info-square.svg

<!--
version: "2.15"
unicode: "fa45"
-->
<svg
  xmlns="http://www.w3.org/2000/svg"
  width="24"
  height="24"
  viewBox="0 0 24 24"
  fill="currentColor"
>
  <path d="M19 2a3 3 0 0 1 2.995 2.824l.005 .176v14a3 3 0 0 1 -2.824 2.995l-.176 .005h-14a3 3 0 0 1 -2.995 -2.824l-.005 -.176v-14a3 3 0 0 1 2.824 -2.995l.176 -.005h14zm-7 9h-1l-.117 .007a1 1 0 0 0 0 1.986l.117 .007v3l.007 .117a1 1 0 0 0 .876 .876l.117 .007h1l.117 -.007a1 1 0 0 0 .876 -.876l.007 -.117l-.007 -.117a1 1 0 0 0 -.764 -.857l-.112 -.02l-.117 -.006v-3l-.007 -.117a1 1 0 0 0 -.876 -.876l-.117 -.007zm.01 -3l-.127 .007a1 1 0 0 0 0 1.986l.117 .007l.127 -.007a1 1 0 0 0 0 -1.986l-.117 -.007z" />
</svg>

<svg xmlns="http://www.w3.org/2000/svg" width="24" height="24" fill="currentColor" viewBox="0 0 24 24"><path d="M19 2a3 3 0 0 1 2.995 2.824L22 5v14a3 3 0 0 1-2.824 2.995L19 22H5a3 3 0 0 1-2.995-2.824L2 19V5a3 3 0 0 1 2.824-2.995L5 2zm-7 9h-1l-.117.007a1 1 0 0 0 0 1.986L11 13v3l.007.117a1 1 0 0 0 .876.876L12 17h1l.117-.007a1 1 0 0 0 .876-.876L14 16l-.007-.117a1 1 0 0 0-.764-.857l-.112-.02L13 15v-3l-.007-.117a1 1 0 0 0-.876-.876zm.01-3-.127.007a1 1 0 0 0 0 1.986L12 10l.127-.007a1 1 0 0 0 0-1.986z"/></svg>
